X:253
T:With a Hundred Pipers
R:Jig
M:6/8
K:A
A/2B/2|"A"c2E "A/C#"EFE|"D"(F2A) A2f|"A/C#"e2c "A"cBA|"E7/B"(c2B) "E7"BAB|"A"c2E "A/C#"EFE|
"D"(F2A) "Bm"A2f|"A/E"(e2c) "E"BAB|"A"A3 A2:|c/2d/2|"A"e2e ece|
"D"f2a a2f|"A"e2c cBA|"E"(c2B) Bcd|"A"e2e efg|
"F#m"a2a "D"agf|"A/E"e2c "E"BAB|"A"A2 A "A/E"Acd||"A"e2e "A/G#"ece|
"F#m"f2a "D"a2f|"C#m"e2c "F#m"cBA|"B7/D#"c2B "E7"BAB|"A"c2E "A/C#"ECE|
"D"F2A "D/B"A2f|"A/C#"e2c "E"BAB|"A"A3 A2|]

